X: 1
T:Tiocfaidh tu Abhaile liom  "this is the same tune as 'Old Hag You Have
M:6/8
L:1/8
Q:80
C:Arranged by Dave Rickard
S:Jig
K:HP
d|:
{g}c2{GdG}e{g}ec{d}A|
{g}fed{g}ecA|
{g}efe{g}efd|  !
e{g}e{A}e{gef}e2d|
{g}c2{GdG}e{g}ec{d}A|
{g}fed{g}ecA|  !
{g}Ad{c}d{gde}dcd|
{g}Ad{c}d{g}d2:|
e|:  !
f2{GdG}fg{a}fg|
a2{GdG}aged|
{g}efe{g}efd|  !
e{g}e{A}e{gef}ede|
f{g}f{e}fg{a}fg|
a2{GdG}aged|  !
{g}Ad{c}d{gde}dcd|
{g}Ad{c}d{g}d2:|
